svg/azure.svg

<svg viewBox="0 0 20 20" xmlns="http://www.w3.org/2000/svg">
<rect width="100%" height="100%" fill="#0D569E"/>
<path fill-rule="evenodd" clip-rule="evenodd" d="M11.8497 2.75012H7.45318L7.00354 2.91316C6.90472 2.99578 6.83029 3.10428 6.78891 3.22696L2.53672 15.8262C2.5012 15.9315 2.49126 16.0437 2.50772 16.1536C2.52419 16.2635 2.56658 16.3679 2.63139 16.4581C2.69621 16.5484 2.78158 16.6219 2.88045 16.6726C2.94161 16.704 3.00683 16.7261 3.07399 16.7384C3.11613 16.7461 3.15902 16.75 3.20216 16.7499H6.71207C6.75813 16.7416 6.80314 16.7291 6.84653 16.7127C6.91174 16.6906 6.97372 16.6588 7.03033 16.6182C7.14946 16.5326 7.23877 16.4119 7.28567 16.2729L7.6869 15.0842L8.13448 13.7651L8.64204 14.2385L11.1298 16.5604C11.2538 16.6762 11.4153 16.743 11.5842 16.7492C11.5924 16.7496 11.6006 16.7498 11.6088 16.7499H11.7731C11.7681 16.75 11.763 16.75 11.758 16.75H16.658C16.7692 16.75 16.8787 16.7235 16.9776 16.6727C17.0764 16.622 17.1618 16.5484 17.2266 16.4581C17.2914 16.3678 17.3338 16.2634 17.3502 16.1535C17.3666 16.0436 17.3567 15.9314 17.3211 15.8261L13.0688 3.22636C13.0219 3.08757 12.9328 2.96697 12.8138 2.88154C12.6948 2.79612 12.552 2.75018 12.4055 2.7502H11.8497L11.8497 2.75012ZM9.93199 8.45049L8.78872 11.8203H11.0693L9.93199 8.45049Z" fill="white"/>
</svg>

<svg xmlns="http://www.w3.org/2000/svg" viewBox="0 0 20 20">
  <rect width="100%" height="100%" fill="#0D569E"/>
  <path fill="#fff" fill-rule="evenodd" d="M11.85 2.75h-4.4L7 2.91a.7.7 0 0 0-.21.32l-4.25 12.6a.7.7 0 0 0 .66.92h3.51c.05 0 .1-.02.14-.04a.7.7 0 0 0 .44-.44l.4-1.19.44-1.31.51.47 2.49 2.32a.7.7 0 0 0 .48.19h.16-.01 4.9a.7.7 0 0 0 .66-.92l-4.25-12.6a.7.7 0 0 0-.66-.48h-.56Zm-1.92 5.7L8.8 11.82h2.28L9.93 8.45Z" clip-rule="evenodd"/>
</svg>
